; G-Code generated by Simplify3D(TM) Version 2.0.1
; Mar 30, 2014 at 9:55:54 PM
; Settings Summary
;   processName,Process1
;   applyToModels,CFA921_Case_0v0_top,CFA921_Case_0v0_bot
;   printMaterial,PLA
;   printQuality,Medium
;   extruderName,Primary Extruder
;   extruderToolheadNumber,0
;   extruderDiameter,0.35
;   extruderAutoWidth,0
;   extruderWidth,0.35
;   extrusionMultiplier,0.85
;   extruderUseRetract,1
;   extruderRetractionDistance,1
;   extruderExtraRestartDistance,0
;   extruderRetractionZLift,0
;   extruderRetractionSpeed,2400
;   extruderUseCoasting,0
;   extruderCoastingDistance,0.2
;   extruderUseWipe,0
;   extruderWipeDistance,5
;   primaryExtruder,0
;   layerHeight,0.25
;   topSolidLayers,3
;   bottomSolidLayers,3
;   perimeterOutlines,3
;   printPerimetersInsideOut,1
;   randomOutlineStartPoint,1
;   sequentialIslands,0
;   spiralVaseMode,0
;   firstLayerHeightRatio,0.9
;   firstLayerUnderspeed,0.5
;   useRaft,0
;   raftLayers,3
;   raftOffset,3
;   raftInfill,85
;   useSkirt,1
;   skirtLayers,1
;   skirtOutlines,2
;   skirtOffset,4
;   infillExtruder,0
;   externalInfillPattern,Rectilinear
;   infillPercentage,80
;   outlineOverlapPercentage,15
;   minInfillLength,2
;   infillLayerInterval,1
;   randomInfillStartPoint,0
;   infillAngles,45,-45
;   generateSupport,0
;   supportExtruder,0
;   supportInfill,25
;   supportLayerInterval,1
;   supportHorizontalPartOffset,0.3
;   supportUpperSeparationLayers,1
;   supportLowerSeparationLayers,1
;   supportGridSpacing,4
;   maxOverhangAngle,45
;   supportAngles,0
;   temperatureName,Primary Extruder,Heated Bed
;   temperatureNumber,0,2
;   temperatureSetpointCount,1,5
;   temperatureSetpointLayers,1,1,2,3,4,5
;   temperatureSetpointTemperatures,190,100,90,80,70,60
;   temperatureStabilizeAtStartup,1,0
;   temperatureHeatedBed,0,1
;   temperatureRelayBetweenLayers,0,0
;   temperatureRelayBetweenLoops,0,0
;   fanLayers,1,2,3,4,5,6,7
;   fanSpeeds,0,20,30,40,60,80,100
;   blipFanToFullPower,1
;   adjustSpeedForCooling,1
;   minSpeedLayerTime,15
;   minCoolingSpeedSlowdown,20
;   increaseFanForCooling,0
;   minFanLayerTime,45
;   maxCoolingFanSpeed,100
;   increaseFanForBridging,0
;   bridgingFanSpeed,100
;   use5D,1
;   relativeEdistances,0
;   allowEaxisZeroing,1
;   includeM10123,0
;   stickySupport,1
;   detectArcs,0
;   arcReplaceG2G3,0
;   arcRadialCompensation,1
;   gcodeXoffset,0
;   gcodeYoffset,0
;   gcodeZoffset,0
;   overrideMachineDefinition,1
;   machineTypeOverride,0
;   strokeXoverride,200
;   strokeYoverride,250
;   strokeZoverride,200
;   originOffsetXoverride,0
;   originOffsetYoverride,0
;   originOffsetZoverride,0
;   homeXdirOverride,-1
;   homeYdirOverride,-1
;   homeZdirOverride,-1
;   flipXoverride,1
;   flipYoverride,-1
;   flipZoverride,1
;   startingGcode,M108 S155 ; turn on M2 fans,G28 ; home all axes,G1 Y50 Z0.3 F9600 ; move forward to avoid binder clips,G1 X205 Z10 ; move off platform,G1 Z0.4 ; position nozzle,G92 E0 ; zero extruder,G1 E25 F225 ; purge nozzle,G92 E0 ; zero extruder,G1 X190 Z0.1 E1.0 F1200 ; slow wipe,G1 X180 Z0.25 ; lift
;   layerChangeGcode,
;   toolChangeGcode,
;   endingGcode,M104 S0 ; turn off extruder,M140 S0 ; turn off bed,G91 ; relative mode,G1 Z10 ; lift 10mm,G90 ; absolute mode,G28 X0 ; home X axis,M84 ; disable motors
;   createX3G,0
;   celebration,0
;   celebrationSong,Random Song
;   postProcessing,
;   defaultSpeed,4800
;   outlineUnderspeed,0.6
;   supportUnderspeed,0.8
;   rapidXYspeed,18000
;   rapidZspeed,1200
;   minBridgingArea,50
;   bridgingExtrusionMultiplier,1
;   bridgingSpeedMultiplier,1
;   filamentDiameter,1.75
;   useMinPrintHeight,0
;   minPrintHeight,0
;   useMaxPrintHeight,0
;   maxPrintHeight,0
;   overlapRemoval,0
;   overlapRemovalPercentage,0.3
;   useDiaphragm,0
;   diaphragmLayerInterval,20
;   robustSlicing,1
;   mergeAllIntoSolid,0
;   onlyRetractWhenCrossingOutline,1
;   retractBetweenLayers,1
;   useRetractionMinTravel,0
;   retractionMinTravel,3
;   useRetractionOozeRate,0
;   retractionOozeRate,100
;   onlyWipeOutlines,1
G90 ; use absolute coordinates
M82 ; absolute extrusion distances
G21 ; set units to millimeters
M106 S0
M140 S100
M104 S190 T0
M109 S190 T0
M108 S155 ; turn on M2 fans
G28 ; home all axes
G1 Y50 Z0.3 F9600 ; move forward to avoid binder clips
G1 X205 Z10 ; move off platform
G1 Z0.4 ; position nozzle
G92 E0 ; zero extruder
G1 E25 F225 ; purge nozzle
G92 E0 ; zero extruder
G1 X190 Z0.1 E1.0 F1200 ; slow wipe
G1 X180 Z0.25 ; lift
G92 E0
G1 E-1 F2400
; layer 1, Z = 0.225
T0
; tool H0.25 W0.35
G0 X32.475 Y123.87 F18000
G0 Z0.225 F1200
G1 E0 F720
G92 E0
G1 X33.678 Y123.87 E0.0372 F2400
G1 X33.678 Y45.514 E2.4601
G1 X33.843 Y44.423 E2.4942
G1 X34.375 Y43.162 E2.5365
G1 X35.155 Y42.132 E2.5765
G1 X36.316 Y41.206 E2.6224
G1 X37.668 Y40.676 E2.6673
G1 X38.685 Y40.533 E2.699
G1 X161.357 Y40.534 E6.4922
G1 X162.523 Y40.718 E6.5288
G1 X163.912 Y41.346 E6.5759
G1 X165.027 Y42.329 E6.6218
G1 X165.69 Y43.302 E6.6583
G1 X166.129 Y44.344 E6.6932
G1 X166.322 Y45.47 E6.7286
G1 X166.322 Y124.149 E9.1614
G1 X166.214 Y124.978 E9.1873
G1 X165.921 Y125.929 E9.218
G1 X165.411 Y126.864 E9.251
G1 X164.654 Y127.765 E9.2874
G1 X163.543 Y128.565 E9.3297
G1 X163.275 Y128.67 E9.3386
G1 X163.275 Y210.67 E11.8742
G1 X32.475 Y210.67 E15.9187
G1 X32.475 Y123.87 E18.6027
G0 X32.825 Y124.22 F18000
G92 E0
G1 X34.035 Y124.22 E0.0374 F2400
G1 X34.028 Y124.171 E0.0389
G1 X34.028 Y45.54 E2.4703
G1 X34.183 Y44.518 E2.5023
G1 X34.68 Y43.338 E2.5419
G1 X35.407 Y42.378 E2.5791
G1 X36.493 Y41.513 E2.6221
G1 X37.757 Y41.016 E2.6641
G1 X38.709 Y40.883 E2.6938
G1 X161.329 Y40.884 E6.4854
G1 X162.421 Y41.057 E6.5196
G1 X163.72 Y41.643 E6.5636
G1 X164.762 Y42.562 E6.6066
G1 X165.381 Y43.47 E6.6406
G1 X165.791 Y44.443 E6.6732
G1 X165.972 Y45.5 E6.7064
G1 X165.972 Y124.126 E9.1376
G1 X165.87 Y124.903 E9.1619
G1 X165.596 Y125.792 E9.1906
G1 X165.12 Y126.666 E9.2214
G1 X164.415 Y127.506 E9.2553
G1 X163.374 Y128.255 E9.295
G1 X162.925 Y128.431 E9.3099
G1 X162.925 Y210.32 E11.842
G1 X32.825 Y210.32 E15.8649
G1 X32.825 Y124.22 E18.5272
G92 E0
G1 E-1 F2400
G0 X39.078 Y45.933 F18000
G1 E0 F2400
G92 E0
G1 X160.922 Y45.934 E3.7676 F1440
G1 X160.922 Y123.771 E6.1745
G1 X39.079 Y123.777 E9.942
G1 X39.078 Y123.776 E9.9421
G1 X39.078 Y45.933 E12.3491
G92 E0
G1 E-1 F2400
G0 X154.625 Y121.976 F18000
G1 E0 F2400
G92 E0
G1 X154.867 Y121.92 E0.0077 F1440
G1 X155.23 Y121.776 E0.0198
G1 X155.455 Y121.645 E0.0278
G1 X155.76 Y121.401 E0.0399
G1 X155.937 Y121.209 E0.048
G1 X156.168 Y120.868 E0.0607
G1 X156.327 Y120.487 E0.0735
G1 X156.388 Y120.248 E0.0811
G1 X156.434 Y119.886 E0.0924
G1 X156.434 Y54.473 E2.1151
G1 X156.386 Y54.102 E2.1266
G1 X156.324 Y53.861 E2.1343
G1 X156.171 Y53.502 E2.1464
G1 X156.034 Y53.28 E2.1545
G1 X155.768 Y52.964 E2.1672
G1 X155.445 Y52.708 E2.18
G1 X155.219 Y52.578 E2.188
G1 X154.824 Y52.425 E2.2011
G1 X154.314 Y52.35 E2.2171
G1 X45.695 Y52.35 E5.5757
G1 X45.259 Y52.405 E5.5893
G1 X44.868 Y52.538 E5.6021
G1 X44.636 Y52.657 E5.6101
G1 X44.32 Y52.886 E5.6222
G1 X44.134 Y53.069 E5.6303
G1 X43.899 Y53.381 E5.6424
G1 X43.775 Y53.61 E5.6504
G1 X43.633 Y54.004 E5.6634
G1 X43.571 Y54.472 E5.678
G1 X43.571 Y119.889 E7.7008
G1 X43.635 Y120.367 E7.7157
G1 X43.78 Y120.761 E7.7287
G1 X43.906 Y120.99 E7.7367
G1 X44.155 Y121.318 E7.7495
G1 X44.465 Y121.59 E7.7622
G1 X44.685 Y121.731 E7.7703
G1 X45.041 Y121.89 E7.7824
G1 X45.292 Y121.96 E7.7904
G1 X45.696 Y122.01 E7.803
G1 X154.296 Y122.01 E11.1611
G1 X154.625 Y121.976 E11.1713
G0 X154.567 Y121.63 F18000
G92 E0
G1 X154.763 Y121.585 E0.0062 F1440
G1 X155.077 Y121.46 E0.0167
G1 X155.257 Y121.356 E0.0231
G1 X155.521 Y121.144 E0.0336
G1 X155.662 Y120.991 E0.04
G1 X155.859 Y120.7 E0.0509
G1 X155.994 Y120.376 E0.0617
G1 X156.043 Y120.182 E0.0679
G1 X156.084 Y119.864 E0.0778
G1 X156.084 Y54.496 E2.0991
G1 X156.041 Y54.169 E2.1093
G1 X155.991 Y53.974 E2.1155
G1 X155.859 Y53.663 E2.126
G1 X155.75 Y53.485 E2.1324
G1 X155.524 Y53.217 E2.1433
G1 X155.248 Y52.999 E2.1541
G1 X155.068 Y52.895 E2.1606
G1 X154.734 Y52.765 E2.1717
G1 X154.288 Y52.7 E2.1856
G1 X45.717 Y52.7 E5.5428
G1 X45.338 Y52.748 E5.5546
G1 X45.006 Y52.861 E5.5655
G1 X44.82 Y52.956 E5.5719
G1 X44.547 Y53.154 E5.5823
G1 X44.398 Y53.3 E5.5888
G1 X44.194 Y53.57 E5.5992
G1 X44.095 Y53.753 E5.6057
G1 X43.975 Y54.087 E5.6167
G1 X43.921 Y54.495 E5.6294
G1 X43.921 Y119.865 E7.6507
G1 X43.977 Y120.282 E7.6637
G1 X44.1 Y120.616 E7.6747
G1 X44.2 Y120.799 E7.6812
G1 X44.413 Y121.078 E7.692
G1 X44.676 Y121.309 E7.7029
G1 X44.852 Y121.422 E7.7093
G1 X45.16 Y121.56 E7.7198
G1 X45.361 Y121.616 E7.7262
G1 X45.717 Y121.66 E7.7373
G1 X154.278 Y121.66 E11.0942
G1 X154.567 Y121.63 E11.1032
G0 X160.994 Y124.121 F18000
G92 E0
G1 X39.047 Y124.127 E3.7708 F1440
G1 X38.918 Y124.103 E3.7748
G1 X38.836 Y124.061 E3.7777
G1 X38.816 Y124.044 E3.7785
G1 X38.757 Y123.957 E3.7817
G1 X38.744 Y123.92 E3.783
G1 X38.728 Y123.815 E3.7862
G1 X38.728 Y45.895 E6.1957
G1 X38.742 Y45.803 E6.1985
G1 X38.782 Y45.707 E6.2018
G1 X38.798 Y45.686 E6.2026
G1 X38.869 Y45.629 E6.2054
G1 X38.958 Y45.594 E6.2083
G1 X39.037 Y45.583 E6.2108
G1 X160.959 Y45.584 E9.9808
G1 X161.063 Y45.6 E9.9841
G1 X161.142 Y45.636 E9.9867
G1 X161.21 Y45.696 E9.9895
G1 X161.232 Y45.729 E9.9908
G1 X161.25 Y45.77 E9.9921
G1 X161.272 Y45.9 E9.9962
G1 X161.272 Y123.821 E12.4057
G1 X161.261 Y123.9 E12.4081
G1 X161.244 Y123.958 E12.41
G1 X161.219 Y124.004 E12.4116
G1 X161.193 Y124.034 E12.4128
G1 X161.108 Y124.095 E12.4161
G1 X161.072 Y124.11 E12.4173
G1 X161.007 Y124.121 E12.4193
G1 X160.994 Y124.121 E12.4197
G0 X160.998 Y124.471 F18000
G92 E0
G1 X39.016 Y124.477 E3.7719 F1440
G1 X38.805 Y124.438 E3.7785
G1 X38.637 Y124.352 E3.7843
G1 X38.552 Y124.277 E3.7879
G1 X38.443 Y124.118 E3.7938
G1 X38.403 Y124.007 E3.7975
G1 X38.378 Y123.842 E3.8026
G1 X38.378 Y45.868 E6.2137
G1 X38.402 Y45.707 E6.2187
G1 X38.477 Y45.53 E6.2247
G1 X38.546 Y45.439 E6.2282
G1 X38.692 Y45.322 E6.234
G1 X38.868 Y45.253 E6.2398
G1 X39.012 Y45.233 E6.2443
G1 X160.986 Y45.234 E10.0159
G1 X161.164 Y45.262 E10.0215
G1 X161.334 Y45.338 E10.0273
G1 X161.474 Y45.463 E10.0331
G1 X161.541 Y45.56 E10.0367
G1 X161.588 Y45.671 E10.0404
G1 X161.622 Y45.87 E10.0467
G1 X161.622 Y123.844 E12.4577
G1 X161.605 Y123.975 E12.4618
G1 X161.568 Y124.094 E12.4657
G1 X161.509 Y124.202 E12.4695
G1 X161.433 Y124.293 E12.4732
G1 X161.277 Y124.405 E12.4791
G1 X161.167 Y124.448 E12.4828
G1 X161.042 Y124.47 E12.4867
G1 X160.998 Y124.471 E12.488
G0 X155.387 Y120.773 F18000
G92 E0
G1 X155.549 Y120.533 E0.009 F1440
G1 X155.661 Y120.266 E0.0179
G1 X155.699 Y120.117 E0.0227
G1 X155.734 Y119.841 E0.0313
G1 X155.734 Y54.519 E2.0511
G1 X155.697 Y54.235 E2.06
G1 X155.659 Y54.086 E2.0647
G1 X155.547 Y53.824 E2.0735
G1 X155.466 Y53.691 E2.0784
G1 X155.279 Y53.469 E2.0873
G1 X155.052 Y53.289 E2.0963
G1 X154.916 Y53.212 E2.1011
G1 X154.644 Y53.106 E2.1101
G1 X154.263 Y53.05 E2.1221
G1 X45.739 Y53.05 E5.4778
G1 X45.417 Y53.09 E5.4878
G1 X45.143 Y53.184 E5.4968
G1 X45.004 Y53.255 E5.5016
G1 X44.773 Y53.422 E5.5104
G1 X44.661 Y53.532 E5.5152
G1 X44.49 Y53.76 E5.5241
G1 X44.416 Y53.897 E5.5289
G1 X44.317 Y54.171 E5.5379
G1 X44.271 Y54.518 E5.5487
G1 X44.271 Y119.842 E7.5686
G1 X44.319 Y120.197 E7.5797
G1 X44.419 Y120.471 E7.5887
G1 X44.494 Y120.607 E7.5936
G1 X44.67 Y120.838 E7.6025
G1 X44.888 Y121.029 E7.6115
G1 X45.019 Y121.113 E7.6163
G1 X45.279 Y121.23 E7.6251
G1 X45.429 Y121.272 E7.63
G1 X45.739 Y121.31 E7.6396
G1 X154.259 Y121.31 E10.9952
G1 X154.509 Y121.284 E11.003
G1 X154.658 Y121.249 E11.0077
G1 X154.924 Y121.144 E11.0165
G1 X155.059 Y121.066 E11.0214
G1 X155.281 Y120.887 E11.0302
G1 X155.387 Y120.773 E11.035
G0 X155.471 Y121.98 F18000
G92 E0
G1 X155.624 Y121.891 E0.0055 F2400
G1 X155.964 Y121.619 E0.0189
G1 X156.171 Y121.394 E0.0284
G1 X156.41 Y121.041 E0.0416
G1 X160.624 Y116.827 E0.2258
G1 X160.624 Y116.332 E0.2411
G1 X156.685 Y120.272 E0.4134
G1 X156.732 Y119.905 E0.4248
G1 X156.732 Y119.729 E0.4303
G1 X160.624 Y115.837 E0.6005
G1 X160.624 Y115.342 E0.6158
G1 X156.732 Y119.234 E0.786
G1 X156.732 Y118.739 E0.8013
G1 X160.624 Y114.847 E0.9715
G1 X160.624 Y114.352 E0.9868
G1 X156.732 Y118.244 E1.1571
G1 X156.732 Y117.75 E1.1724
G1 X160.624 Y113.857 E1.3426
G1 X160.624 Y113.362 E1.3579
G1 X156.732 Y117.255 E1.5281
G1 X156.732 Y116.76 E1.5434
G1 X160.624 Y112.867 E1.7136
G1 X160.624 Y112.372 E1.7289
G1 X156.732 Y116.265 E1.8991
G1 X156.732 Y115.77 E1.9145
G1 X160.624 Y111.877 E2.0847
G1 X160.624 Y111.382 E2.1
G1 X156.732 Y115.275 E2.2702
G1 X156.732 Y114.78 E2.2855
G1 X160.624 Y110.887 E2.4557
G1 X160.624 Y110.392 E2.471
G1 X156.732 Y114.285 E2.6412
G1 X156.732 Y113.79 E2.6565
G1 X160.624 Y109.897 E2.8267
G1 X160.624 Y109.402 E2.8421
G1 X156.732 Y113.295 E3.0123
G1 X156.732 Y112.8 E3.0276
G1 X160.624 Y108.907 E3.1978
G1 X160.624 Y108.412 E3.2131
G1 X156.732 Y112.305 E3.3833
G1 X156.732 Y111.81 E3.3986
G1 X160.624 Y107.917 E3.5688
G1 X160.624 Y107.422 E3.5841
G1 X156.732 Y111.315 E3.7544
G1 X156.732 Y110.82 E3.7697
G1 X160.624 Y106.927 E3.9399
G1 X160.624 Y106.432 E3.9552
G1 X156.732 Y110.325 E4.1254
G1 X156.732 Y109.83 E4.1407
G1 X160.624 Y105.937 E4.3109
G1 X160.624 Y105.442 E4.3262
G1 X156.732 Y109.335 E4.4964
G1 X156.732 Y108.84 E4.5117
G1 X160.624 Y104.948 E4.682
G1 X160.624 Y104.453 E4.6973
G1 X156.732 Y108.345 E4.8675
G1 X156.732 Y107.85 E4.8828
G1 X160.624 Y103.958 E5.053
G1 X160.624 Y103.463 E5.0683
G1 X156.732 Y107.355 E5.2385
G1 X156.732 Y106.86 E5.2538
G1 X160.624 Y102.968 E5.424
G1 X160.624 Y102.473 E5.4393
G1 X156.732 Y106.365 E5.6096
G1 X156.732 Y105.87 E5.6249
G1 X160.624 Y101.978 E5.7951
G1 X160.624 Y101.483 E5.8104
G1 X156.732 Y105.375 E5.9806
G1 X156.732 Y104.88 E5.9959
G1 X160.624 Y100.988 E6.1661
G1 X160.624 Y100.493 E6.1814
G1 X156.732 Y104.385 E6.3516
G1 X156.732 Y103.89 E6.3669
G1 X160.624 Y99.998 E6.5372
G1 X160.624 Y99.503 E6.5525
G1 X156.732 Y103.395 E6.7227
G1 X156.732 Y102.9 E6.738
G1 X160.624 Y99.008 E6.9082
G1 X160.624 Y98.513 E6.9235
G1 X156.732 Y102.405 E7.0937
G1 X156.732 Y101.91 E7.109
G1 X160.624 Y98.018 E7.2792
G1 X160.624 Y97.523 E7.2945
G1 X156.732 Y101.415 E7.4648
G1 X156.732 Y100.92 E7.4801
G1 X160.624 Y97.028 E7.6503
G1 X160.624 Y96.533 E7.6656
G1 X156.732 Y100.425 E7.8358
G1 X156.732 Y99.93 E7.8511
G1 X160.624 Y96.038 E8.0213
G1 X160.624 Y95.543 E8.0366
G1 X156.732 Y99.435 E8.2068
G1 X156.732 Y98.94 E8.2221
G1 X160.624 Y95.048 E8.3924
G1 X160.624 Y94.553 E8.4077
G1 X156.732 Y98.445 E8.5779
G1 X156.732 Y97.951 E8.5932
G1 X160.624 Y94.058 E8.7634
G1 X160.624 Y93.563 E8.7787
G1 X156.732 Y97.456 E8.9489
G1 X156.732 Y96.961 E8.9642
G1 X160.624 Y93.068 E9.1344
G1 X160.624 Y92.573 E9.1497
G1 X156.732 Y96.466 E9.32
G1 X156.732 Y95.971 E9.3353
G1 X160.624 Y92.078 E9.5055
G1 X160.624 Y91.583 E9.5208
G1 X156.732 Y95.476 E9.691
G1 X156.732 Y94.981 E9.7063
G1 X160.624 Y91.088 E9.8765
G1 X160.624 Y90.593 E9.8918
G1 X156.732 Y94.486 E10.062
G1 X156.732 Y93.991 E10.0773
G1 X160.624 Y90.098 E10.2476
G1 X160.624 Y89.603 E10.2629
G1 X156.732 Y93.496 E10.4331
G1 X156.732 Y93.001 E10.4484
G1 X160.624 Y89.108 E10.6186
G1 X160.624 Y88.613 E10.6339
G1 X156.732 Y92.506 E10.8041
G1 X156.732 Y92.011 E10.8194
G1 X160.624 Y88.118 E10.9896
G1 X160.624 Y87.623 E11.005
G1 X156.732 Y91.516 E11.1752
G1 X156.732 Y91.021 E11.1905
G1 X160.624 Y87.128 E11.3607
G1 X160.624 Y86.633 E11.376
G1 X156.732 Y90.526 E11.5462
G1 X156.732 Y90.031 E11.5615
G1 X160.624 Y86.138 E11.7317
G1 X160.624 Y85.644 E11.747
G1 X156.732 Y89.536 E11.9172
G1 X156.732 Y89.041 E11.9326
